X:1
T:The Wee Little Croodin' Doo
M:3/4
L:1/4
K:G
 G3/2 A/2 G| G2 G|B/2-d/2 d d| d z e| e3/2 f/2 g| g- f e| d3-| d z g|\
 d3/2 e/2 B|d/2-c/2 c A| G/2 G2 z/2| z3| E/2 E2 z/2| d c A| G3-| G3|\
